X:1
T:Johnny Allen's
M:4/4
L:1/8
R:reel
Z:transcribed by Caroline Foty
Z: Contributed 2017-08-18 17:14:07 by Hans Grootveld h.grootvelc@casema.nl
K:D
|: A3B AGFE|D=ccB cBAG|A3B AGFE|DGGF G2FG|A3B AGFE|Dddc defg|
afge fdec|dBAF G2FG :|
|: Adeg fdec|A~d3 AddB|Adeg fdec|dBAF G2FG|Adeg fdec|Addc defg|
afge fdec|dBAF G2FG :|
